X:28
T:Sur les routes de l'alliance - G321
C:J. Akepsimas
M:C|
L:1/4
K:F
F/G/|"Fa"AF"Sib"BA|"Do"G"Rem"FzA/B/|"Lam"cA"Sib"BA|"Do"G3F/G/|"Fa"AF"Sib"BA|"Do"G"Rem"FzF/E/|\
"Sib"DEFG|
"La"A3A/G/|"Rem"F"Sib"D"Solm"F"Do"G|"Fa"F4||"Rem"F3/F/EF|"Solm"G2GD/E/|"Sib"FF"Do"EC|\
"Rem"D4|"Rem"F3/F/EF|
"Solm"G2GD/E/|"Sib"FF"Do"EC|"Rem"D3F/G/|"Fa"A3/A/GA|"Solm"B2"Do"BA/G/|"Rem"FF"Sol"EF|\
"Do"G3F/G/||
